images/tg-img.svg

<svg width="21" height="19" viewBox="0 0 21 19" fill="none" xmlns="http://www.w3.org/2000/svg">
<path d="M18.442 0.165832C18.442 0.165832 20.3067 -0.647183 20.1507 1.32713C20.0994 2.14014 19.6333 4.98597 19.2704 8.06362L18.0272 17.1812C18.0272 17.1812 17.9236 18.5169 16.9909 18.7493C16.0588 18.9811 14.6601 17.9363 14.4009 17.7039C14.1935 17.5295 10.5158 14.916 9.22081 13.6388C8.85793 13.29 8.44322 12.5934 9.27265 11.7804L14.7114 5.97285C15.333 5.27629 15.9546 3.65026 13.3646 5.62457L6.11189 11.1413C6.11189 11.1413 5.28295 11.7225 3.72921 11.1998L0.361576 10.0379C0.361576 10.0379 -0.881606 9.16696 1.24236 8.29598C6.42293 5.56661 12.7948 2.77929 18.441 0.165832H18.442Z" fill="#2161AB"/>
</svg>

<svg width="21" height="19" fill="none" xmlns="http://www.w3.org/2000/svg"><path d="M18.442.166s1.865-.813 1.709 1.161c-.052.813-.518 3.659-.88 6.737l-1.244 9.117s-.103 1.336-1.036 1.568c-.932.232-2.33-.813-2.59-1.045-.207-.175-3.885-2.788-5.18-4.065-.363-.349-.778-1.046.052-1.859l5.438-5.807c.622-.697 1.244-2.323-1.346-.348L6.112 11.14s-.83.582-2.383.059L.362 10.038s-1.244-.871.88-1.742c5.18-2.73 11.553-5.517 17.199-8.13h.001z" fill="#2161AB"/></svg>
